spark-frontend/src/assets/tokens/uni.svg

<svg width="24" height="24" viewBox="0 0 24 24" fill="none" xmlns="http://www.w3.org/2000/svg">
    <g clip-path="url(#clip0_14_5350)">
        <rect width="24" height="24" fill="#FF007A"/>
        <g clip-path="url(#clip1_14_5350)">
            <path d="M10.13 7.09584C9.93493 7.06798 9.92564 7.05869 10.0185 7.0494C10.195 7.02154 10.6037 7.05869 10.8916 7.1237C11.5603 7.2816 12.164 7.69027 12.8049 8.40544L12.9721 8.60048L13.2136 8.56333C14.2445 8.39615 15.3033 8.52618 16.1857 8.93485C16.4272 9.0463 16.808 9.26921 16.8544 9.32494C16.873 9.34352 16.9009 9.46426 16.9194 9.585C16.9845 10.0215 16.9566 10.3466 16.8173 10.5974C16.743 10.7367 16.743 10.7739 16.7894 10.8946C16.8266 10.9875 16.938 11.0525 17.0402 11.0525C17.2631 11.0525 17.4953 10.6996 17.6068 10.2073L17.6532 10.0122L17.7368 10.1051C18.2105 10.6345 18.582 11.3683 18.6377 11.8884L18.6563 12.0277L18.5727 11.907C18.4334 11.6934 18.3033 11.554 18.1269 11.4333C17.8111 11.2197 17.4767 11.1547 16.5944 11.1082C15.7956 11.0618 15.3405 10.9968 14.8947 10.8482C14.1331 10.5974 13.743 10.2723 12.842 9.07417C12.4427 8.54476 12.1919 8.25683 11.9411 8.01534C11.3931 7.48593 10.8451 7.20729 10.13 7.09584Z"
                  fill="black"/>
            <path d="M17.0496 8.2755C17.0682 7.92256 17.1146 7.69036 17.2168 7.47674C17.2539 7.39315 17.2911 7.31885 17.3004 7.31885C17.3096 7.31885 17.2911 7.38386 17.2632 7.45817C17.1889 7.6625 17.1796 7.95043 17.226 8.2755C17.2911 8.69346 17.3189 8.74919 17.7647 9.2043C17.9691 9.41792 18.2106 9.68727 18.3034 9.79872L18.4613 10.0031L18.3034 9.85445C18.1084 9.66869 17.6626 9.31575 17.5604 9.26931C17.4954 9.23216 17.4861 9.23216 17.4397 9.2786C17.4025 9.31575 17.3932 9.37148 17.3932 9.64083C17.3839 10.0588 17.3282 10.3188 17.1889 10.5882C17.1146 10.7275 17.1053 10.6997 17.1703 10.5418C17.2168 10.421 17.226 10.3653 17.226 9.96591C17.226 9.15786 17.1332 8.96281 16.5666 8.63773C16.4273 8.55414 16.1858 8.4334 16.0465 8.36838C15.8979 8.30337 15.7864 8.24764 15.7957 8.24764C15.8143 8.22906 16.3623 8.38696 16.5759 8.47984C16.901 8.60987 16.9567 8.61916 16.9938 8.60987C17.0217 8.58201 17.0403 8.5077 17.0496 8.2755Z"
                  fill="black"/>
            <path d="M10.5108 9.65924C10.1207 9.12054 9.86997 8.28462 9.9257 7.66233L9.94427 7.46729L10.0372 7.48586C10.2043 7.51372 10.4923 7.62518 10.6316 7.70877C11.0031 7.93168 11.1703 8.23818 11.3282 8.99979C11.3746 9.2227 11.4396 9.48276 11.4675 9.56636C11.5139 9.70567 11.6904 10.0308 11.839 10.2351C11.9412 10.3837 11.8762 10.458 11.644 10.4394C11.291 10.4023 10.8173 10.0772 10.5108 9.65924Z"
                  fill="black"/>
            <path d="M16.5758 13.6999C14.7368 12.9569 14.0867 12.316 14.0867 11.2293C14.0867 11.0714 14.096 10.9414 14.096 10.9414C14.1052 10.9414 14.1703 10.9971 14.2539 11.0621C14.6254 11.3594 15.0433 11.4894 16.2043 11.6566C16.8823 11.7587 17.2724 11.833 17.6254 11.9538C18.7492 12.3253 19.4458 13.0869 19.613 14.1179C19.6594 14.4151 19.6316 14.9817 19.5573 15.2789C19.4922 15.5111 19.3065 15.9383 19.26 15.9476C19.2508 15.9476 19.2322 15.9012 19.2322 15.8269C19.2136 15.4368 19.0186 15.0652 18.6935 14.7773C18.3034 14.443 17.8018 14.1922 16.5758 13.6999Z"
                  fill="black"/>
            <path d="M15.2756 14.006C15.257 13.8667 15.2106 13.6902 15.1827 13.6159L15.1363 13.4766L15.2199 13.5787C15.3406 13.718 15.4335 13.8852 15.5171 14.1174C15.5821 14.2939 15.5821 14.3496 15.5821 14.6376C15.5821 14.9162 15.5728 14.9812 15.5171 15.1391C15.4242 15.3899 15.3128 15.5663 15.127 15.7614C14.7926 16.105 14.3561 16.2908 13.7338 16.3744C13.6224 16.3837 13.3066 16.4115 13.0279 16.4301C12.3313 16.4673 11.8669 16.5416 11.449 16.6902C11.3933 16.7088 11.3375 16.7273 11.3282 16.718C11.3097 16.6995 11.5976 16.5323 11.8298 16.4208C12.1549 16.2629 12.4892 16.1793 13.223 16.0493C13.5852 15.9936 13.9567 15.9193 14.0496 15.8821C14.9691 15.5942 15.4242 14.879 15.2756 14.006Z"
                  fill="black"/>
            <path d="M16.1207 15.5013C15.8792 14.9719 15.8235 14.4704 15.9535 13.9967C15.9721 13.9502 15.9907 13.9038 16.0092 13.9038C16.0278 13.9038 16.0836 13.9317 16.1393 13.9688C16.2507 14.0431 16.4829 14.1732 17.0774 14.4982C17.8297 14.9069 18.2569 15.2227 18.5541 15.5849C18.8142 15.9007 18.9721 16.2629 19.0464 16.7088C19.0928 16.9595 19.065 17.5633 19 17.814C18.7956 18.6035 18.3312 19.2351 17.6532 19.5973C17.551 19.653 17.4675 19.6902 17.4582 19.6902C17.4489 19.6902 17.486 19.5973 17.5418 19.4859C17.7647 19.0122 17.7925 18.5571 17.6253 18.0462C17.5232 17.7304 17.3096 17.3496 16.8823 16.7088C16.3715 15.9657 16.2507 15.7707 16.1207 15.5013Z"
                  fill="black"/>
            <path d="M9.20115 18.3437C9.88846 17.7678 10.7337 17.3592 11.5138 17.2291C11.8482 17.1734 12.4055 17.192 12.712 17.2756C13.2042 17.4056 13.6501 17.6842 13.8823 18.0279C14.1052 18.3622 14.2073 18.6502 14.3095 19.291C14.3467 19.5418 14.3931 19.8019 14.4024 19.8576C14.4767 20.192 14.6253 20.452 14.8111 20.5913C15.099 20.805 15.6005 20.8143 16.0928 20.6285C16.1764 20.6006 16.2507 20.5728 16.2507 20.5821C16.2693 20.6006 16.0185 20.7678 15.8513 20.8514C15.6191 20.9722 15.4333 21.0093 15.1826 21.0093C14.7368 21.0093 14.3559 20.7771 14.0494 20.3127C13.9844 20.2198 13.8544 19.9505 13.7429 19.6997C13.4179 18.9474 13.2507 18.7245 12.8699 18.4737C12.5355 18.2601 12.1083 18.2136 11.7832 18.3715C11.3559 18.5759 11.2445 19.1239 11.5417 19.4582C11.6624 19.5975 11.8854 19.709 12.0711 19.7369C12.4148 19.7833 12.712 19.514 12.712 19.1703C12.712 18.9474 12.6284 18.8174 12.4055 18.7152C12.1083 18.5852 11.7832 18.7338 11.7925 19.0217C11.7925 19.1424 11.8482 19.2167 11.969 19.2725C12.0433 19.3096 12.0433 19.3096 11.9875 19.3003C11.7182 19.2446 11.6532 18.9102 11.8668 18.6966C12.1268 18.4366 12.6748 18.548 12.8606 18.9102C12.9349 19.0588 12.9442 19.3561 12.8792 19.5418C12.7213 19.9505 12.2755 20.1641 11.8203 20.0434C11.5138 19.9598 11.3838 19.8762 11.0123 19.4954C10.3621 18.8266 10.1114 18.6966 9.18257 18.5573L9.0061 18.5294L9.20115 18.3437Z"
                  fill="black"/>
            <path fill-rule="evenodd" clip-rule="evenodd"
                  d="M4.31571 3.39938C6.4798 6.02786 9.81417 10.1146 9.98135 10.3375C10.1207 10.5232 10.0649 10.6997 9.83274 10.8297C9.70271 10.904 9.43336 10.9783 9.30333 10.9783C9.15472 10.9783 8.97825 10.904 8.85751 10.7833C8.77392 10.6997 8.41169 10.1703 7.59435 8.89783C6.97206 7.9226 6.44265 7.11455 6.43336 7.10526C6.39621 7.08669 6.39621 7.08669 7.52934 9.11146C8.24451 10.3839 8.4767 10.839 8.4767 10.8947C8.4767 11.0155 8.43955 11.0805 8.29095 11.2477C8.04017 11.5263 7.92872 11.8421 7.84513 12.5015C7.75225 13.2353 7.50147 13.7554 6.7863 14.6378C6.36835 15.1579 6.30333 15.2508 6.20116 15.4644C6.07113 15.7245 6.03398 15.8731 6.0154 16.2074C5.99683 16.5604 6.03398 16.7833 6.13615 17.1176C6.22903 17.4149 6.33119 17.6099 6.58197 17.9907C6.79559 18.3251 6.92562 18.5759 6.92562 18.6687C6.92562 18.743 6.9442 18.743 7.27856 18.6687C8.07732 18.483 8.73677 18.1672 9.099 17.7771C9.32191 17.5356 9.37763 17.4056 9.37763 17.0712C9.37763 16.8576 9.36835 16.8111 9.31262 16.6811C9.21974 16.4768 9.04327 16.3096 8.66246 16.0495C8.16091 15.7059 7.94729 15.4272 7.89157 15.0557C7.84513 14.7399 7.90085 14.5263 8.17949 13.9412C8.46742 13.3375 8.54172 13.0867 8.58816 12.4737C8.61602 12.0836 8.66246 11.9257 8.77392 11.805C8.89466 11.6749 8.99683 11.6285 9.28475 11.5913C9.75844 11.5263 10.0649 11.4056 10.3064 11.1734C10.52 10.9783 10.6129 10.7833 10.6222 10.4954L10.6315 10.2817L10.5108 10.1517C10.0742 9.65015 4.02779 3 3.99992 3C3.99064 3 4.13924 3.17647 4.31571 3.39938ZM7.16711 16.6068C7.26927 16.4303 7.21355 16.2074 7.04636 16.096C6.88847 15.9938 6.64698 16.0402 6.64698 16.1796C6.64698 16.2167 6.66556 16.2539 6.72129 16.2724C6.80488 16.3189 6.81417 16.3653 6.74915 16.4675C6.68414 16.5697 6.68413 16.6625 6.76773 16.7276C6.89776 16.8297 7.07423 16.774 7.16711 16.6068Z"
                  fill="black"/>
            <path fill-rule="evenodd" clip-rule="evenodd"
                  d="M10.9287 11.7214C10.7058 11.7864 10.4922 12.0279 10.4271 12.2694C10.39 12.418 10.4086 12.6874 10.4736 12.771C10.5757 12.901 10.6686 12.9382 10.9287 12.9382C11.4395 12.9382 11.8761 12.7152 11.9225 12.4459C11.9689 12.223 11.7739 11.9165 11.5045 11.7772C11.3652 11.7029 11.0773 11.675 10.9287 11.7214ZM11.5231 12.1858C11.5974 12.0744 11.5696 11.9536 11.4302 11.87C11.1795 11.7121 10.7987 11.8422 10.7987 12.0837C10.7987 12.2044 10.9937 12.3344 11.1795 12.3344C11.3002 12.3344 11.4674 12.2601 11.5231 12.1858Z"
                  fill="black"/>
        </g>
    </g>
    <defs>
        <clipPath id="clip0_14_5350">
            <rect width="24" height="24" rx="12" fill="white"/>
        </clipPath>
        <clipPath id="clip1_14_5350">
            <rect width="15.6316" height="18" fill="white" transform="translate(4 3)"/>
        </clipPath>
    </defs>
</svg>

<svg xmlns="http://www.w3.org/2000/svg" width="24" height="24" fill="none"><g clip-path="url(#a)"><path fill="#FF007A" d="M0 0h24v24H0z"/><g fill="#000" clip-path="url(#b)"><path d="M10.13 7.096c-.195-.028-.204-.037-.112-.047.177-.027.586.01.874.075.668.158 1.272.566 1.913 1.281l.167.195.242-.037c1.03-.167 2.09-.037 2.972.372.241.111.622.334.668.39.019.019.047.14.065.26.066.436.038.762-.102 1.012-.074.14-.074.177-.028.298.038.093.149.158.251.158.223 0 .455-.353.567-.846l.046-.195.084.093c.474.53.845 1.263.9 1.783l.02.14-.084-.121a1.6 1.6 0 0 0-.446-.474c-.316-.213-.65-.278-1.533-.325-.798-.046-1.254-.111-1.7-.26-.76-.25-1.151-.576-2.052-1.774-.4-.53-.65-.817-.9-1.059-.549-.53-1.097-.808-1.812-.92"/><path d="M17.05 8.276c.018-.353.065-.586.167-.8a.6.6 0 0 1 .083-.157c.01 0-.009.065-.037.14-.074.204-.083.491-.037.816.065.418.093.474.539.93.204.213.446.482.538.594l.158.204-.158-.149c-.195-.185-.64-.538-.743-.585-.065-.037-.074-.037-.12.01-.038.037-.047.092-.047.362-.01.418-.065.678-.204.947-.074.14-.084.112-.019-.046.047-.121.056-.177.056-.576 0-.808-.093-1.003-.66-1.328a7 7 0 0 0-.52-.27 2 2 0 0 1-.25-.12c.018-.019.566.139.78.232.325.13.38.14.418.13.028-.028.046-.102.056-.335M10.51 9.66c-.39-.54-.64-1.375-.584-1.998l.018-.195.093.019c.167.028.455.14.595.223.371.223.538.53.696 1.29.047.224.112.484.14.567.046.14.222.465.371.67.102.148.037.222-.195.203-.353-.037-.827-.362-1.133-.78m6.065 4.041c-1.84-.743-2.49-1.384-2.49-2.47 0-.159.01-.289.01-.289.01 0 .074.056.158.121.371.297.79.427 1.95.595.678.102 1.068.176 1.421.297 1.124.371 1.82 1.133 1.988 2.164.046.297.019.864-.056 1.16-.065.233-.25.66-.297.67-.01 0-.028-.047-.028-.121-.018-.39-.213-.762-.538-1.05-.39-.334-.892-.585-2.118-1.077m-1.3.306a2 2 0 0 0-.093-.39l-.047-.14.084.103c.12.139.213.306.297.538.065.177.065.233.065.52 0 .28-.01.344-.065.502a1.7 1.7 0 0 1-.39.622c-.334.344-.77.53-1.393.613-.112.01-.427.038-.706.056-.697.037-1.161.112-1.579.26-.056.019-.111.037-.12.028-.02-.018.269-.186.5-.297.326-.158.66-.242 1.394-.372.362-.055.734-.13.827-.167.92-.288 1.374-1.003 1.226-1.876"/><path d="M16.12 15.501q-.361-.794-.167-1.504c.02-.047.038-.093.056-.093a.4.4 0 0 1 .13.065c.112.074.344.204.938.53.753.408 1.18.724 1.477 1.086.26.316.418.678.492 1.124.047.25.019.854-.046 1.105-.204.79-.669 1.421-1.347 1.783a1.3 1.3 0 0 1-.195.093c-.01 0 .028-.093.084-.204.223-.474.25-.929.083-1.44-.102-.316-.315-.696-.743-1.337-.51-.743-.631-.938-.761-1.208m-6.92 2.843c.687-.576 1.533-.985 2.313-1.115.334-.056.892-.037 1.198.047.492.13.938.408 1.17.752.223.334.325.622.428 1.263.037.25.083.51.092.567.075.334.223.594.41.733.287.214.789.223 1.28.037.084-.027.159-.055.159-.046.018.019-.233.186-.4.27a1.3 1.3 0 0 1-.668.157c-.446 0-.827-.232-1.134-.696a5 5 0 0 1-.306-.613c-.325-.753-.492-.976-.873-1.226-.334-.214-.762-.26-1.087-.102-.427.204-.538.752-.241 1.086.12.14.343.251.53.279a.567.567 0 0 0 .64-.567c0-.223-.084-.353-.306-.455-.298-.13-.623.019-.614.307 0 .12.056.195.177.25.074.038.074.038.019.028-.27-.055-.335-.39-.121-.603.26-.26.808-.149.994.213.074.149.083.446.018.632-.158.409-.604.622-1.059.501-.306-.083-.436-.167-.808-.548-.65-.668-.9-.798-1.83-.938l-.176-.028z"/><path fill-rule="evenodd" d="M4.316 3.4c2.164 2.628 5.498 6.715 5.665 6.938.14.185.084.362-.148.492-.13.074-.4.148-.53.148a.67.67 0 0 1-.445-.195c-.084-.083-.446-.613-1.264-1.885a121 121 0 0 0-1.16-1.793c-.038-.018-.038-.018 1.095 2.006.716 1.273.948 1.728.948 1.784 0 .12-.037.186-.186.353-.25.278-.362.594-.446 1.254-.093.733-.344 1.253-1.059 2.136-.418.52-.483.613-.585.826-.13.26-.167.41-.186.743-.018.353.019.576.121.91.093.298.195.493.446.874.214.334.344.585.344.678 0 .074.018.074.353 0 .798-.186 1.458-.502 1.82-.892.223-.241.279-.371.279-.706 0-.213-.01-.26-.065-.39-.093-.204-.27-.371-.65-.632-.502-.343-.716-.622-.771-.993-.047-.316.009-.53.287-1.115.288-.604.363-.854.41-1.467.027-.39.073-.548.185-.669.12-.13.223-.176.51-.214.474-.065.78-.185 1.022-.418a.87.87 0 0 0 .316-.678l.01-.213-.121-.13C10.074 9.65 4.028 3 4 3c-.01 0 .14.176.316.4m2.851 13.207a.383.383 0 0 0-.12-.511c-.159-.102-.4-.056-.4.084 0 .037.019.074.074.092.084.047.093.093.028.196-.065.102-.065.195.019.26.13.102.306.046.4-.121m3.761-4.886c-.223.065-.437.307-.502.548-.037.149-.018.418.047.502.102.13.195.167.455.167.51 0 .947-.223.993-.492.047-.223-.148-.53-.418-.669a.94.94 0 0 0-.575-.056m.594.465c.074-.112.047-.232-.093-.316-.25-.158-.631-.028-.631.214 0 .12.195.25.38.25.121 0 .288-.074.344-.148" clip-rule="evenodd"/></g></g><defs><clipPath id="a"><rect width="24" height="24" fill="#fff" rx="12"/></clipPath><clipPath id="b"><path fill="#fff" d="M4 3h15.632v18H4z"/></clipPath></defs></svg>
